dist/images/matteocancelliericom2.svg

<svg xmlns="http://www.w3.org/2000/svg" viewBox="0 0 1080 1080"><defs><style>.cls-1{fill:#fff}.cls-2{fill:#7e7208}.cls-3{fill:#ef5d29}.cls-4{fill:#050100}.cls-5{fill:#c2981d}.cls-6{fill:#d3b16f}.cls-7{fill:#958b8a}</style></defs><title>matteocancelliericom2</title><g id="face"><path class="cls-1" d="M506.6 266A298 298 0 0 0 538 161.5c8.5-81.4-3.95-150.36 78.57-150.5 94.14-.16 81.82 70.22 62.37 174.28-7.25 38.79-9.34 71.41-1.67 87.74-.6-1.29-170.67-7.02-170.67-7.02z"/><path class="cls-2" d="M584.33 108.08c34.88-.46 10.24 48.81 28.64 48.67 9.75-.07 2.72-49.14 41.56-41.67-13.62-2.88-24.76-35.62-33.25-35.41-6.98.17-14.39 17.39-36.95 28.41z"/><path class="cls-3" d="M549.39 65.2c6.13 24.26 21.21-32.29 1.87-16.27-3.34 2.77-3.2 11.02-1.87 16.27zm130.67 17.27c10.53 11.27 19.46-10.94 10.76-20.47s-10.69 22.18-10.76 20.47z"/><path class="cls-4" d="M550.14 63.85c5.72 22.65 19.8-30.14 1.74-15.18-3.11 2.58-2.98 10.27-1.74 15.18zm131.29 16.78c8.51 9.11 15.73-8.85 8.69-16.59s-8.63 17.96-8.69 16.59z"/><path class="cls-5" d="M610.15 157.43c16.1-.55 16.1-48.06 24.9-60.37 4.63-6.49-9-19.36-14.08-19.36-5.28 0-17.88 10.38-15.84 15.84 5.28 14.08-6.38 64.28 5.02 63.89z"/><path class="cls-6" d="M422.6 910.63c-.34 50.71-.06 94.25-11.21 144.81-26.2-26.35 12.76 6.47 6.52 3.22 8.88 4.63 22.69-108.48 24.29-120.76 5.17-39.81 6.33-56.06-.3-98.08-14.49 15.63-19.16 50.02-19.3 70.81zm210.55-13.08c-6.7 12.38 2.78 18.6 4.58 39.43 3.83 44.34 10.14 111.36 13.49 139 33.06-18.32 4.11-201.75 4.47-238.18-30.97-3.8-15.56 46.86-22.54 59.75z"/><path class="cls-1" d="M482.09 346C465.58 427.16 396.88 471.27 378 554.1c-18 79.16-43.86 220.41 9.43 250.69C430 829 431.29 856 430.5 855.71c24.58 7.88 8.89-9 34.39-11.46 56-5.45 133.51-40.16 171.87 8.24a11 11 0 0 0 18.24-1.42c42.49-75.52 98.48-102.7 106.65-202.79 7.42-90.87 10.61-125.4-40.33-212.43-36.9-63-20.06-182-88.21-214.34-85.02-40.4-126.51 4-151.02 124.49z"/><path class="cls-7" d="M366.48 728.73c-3.1 12.89-9.45 69.39-18.25 81-4.41 5.8-2.67-35.89-8.8-33.43-4 1.6-7.74 9.57-14.08 10.56-3.17.49-8.36-9.26-13.46-9s-10.12 10.59-12.94 9c-14.29-8.14-.91-101.67 2.18-117.28 3.56-18 87.55-232.37 114.69-197.33 26.18 33.75-40.6 220.1-49.34 256.48zm386.99-89.66c1 24.32-48 144.83-48 140.72 76-23.16 99.22-148.83 77.7-222.08-7-23.92-26.1-79.13-48.28-35.16-15.42 30.45 17.26 84.08 18.58 116.52z"/></g></svg>

<svg xmlns="http://www.w3.org/2000/svg" viewBox="0 0 1080 1080"><defs><style>.cls-1{fill:#fff;}.cls-2{fill:#7e7208;}.cls-3{fill:#ef5d29;}.cls-4{fill:#050100;}.cls-5{fill:#c2981d;}.cls-6{fill:#d3b16f;}.cls-7{fill:#958b8a;}</style></defs><title>matteocancelliericom2</title><g id="face"><path class="cls-1" d="M506.6,266A298,298,0,0,0,538,161.5C546.5,80.1,534.05,11.14,616.57,11c94.14-.16,81.82,70.22,62.37,174.28-7.25,38.79-9.34,71.41-1.67,87.74C676.67,271.73,506.6,266,506.6,266Z"/><path class="cls-2" d="M584.33,108.08c34.88-.46,10.24,48.81,28.64,48.67,9.75-.07,2.72-49.14,41.56-41.67-13.62-2.88-24.76-35.62-33.25-35.41C614.3,79.84,606.89,97.06,584.33,108.08Z"/><path class="cls-3" d="M549.39,65.2c6.13,24.26,21.21-32.29,1.87-16.27C547.92,51.7,548.06,59.95,549.39,65.2Z"/><path class="cls-3" d="M680.06,82.47C690.59,93.74,699.52,71.53,690.82,62S680.13,84.18,680.06,82.47Z"/><path class="cls-4" d="M550.14,63.85c5.72,22.65,19.8-30.14,1.74-15.18C548.77,51.25,548.9,58.94,550.14,63.85Z"/><path class="cls-4" d="M681.43,80.63c8.51,9.11,15.73-8.85,8.69-16.59S681.49,82,681.43,80.63Z"/><path class="cls-5" d="M610.15,157.43c16.1-.55,16.1-48.06,24.9-60.37,4.63-6.49-9-19.36-14.08-19.36-5.28,0-17.88,10.38-15.84,15.84C610.41,107.62,598.75,157.82,610.15,157.43Z"/><path class="cls-6" d="M422.6,910.63c-.34,50.71-.06,94.25-11.21,144.81-26.2-26.35,12.76,6.47,6.52,3.22,8.88,4.63,22.69-108.48,24.29-120.76,5.17-39.81,6.33-56.06-.3-98.08C427.41,855.45,422.74,889.84,422.6,910.63Z"/><path class="cls-6" d="M633.15,897.55c-6.7,12.38,2.78,18.6,4.58,39.43,3.83,44.34,10.14,111.36,13.49,139,33.06-18.32,4.11-201.75,4.47-238.18C624.72,834,640.13,884.66,633.15,897.55Z"/><path class="cls-1" d="M482.09,346C465.58,427.16,396.88,471.27,378,554.1c-18,79.16-43.86,220.41,9.43,250.69C430,829,431.29,856,430.5,855.71c24.58,7.88,8.89-9,34.39-11.46,56-5.45,133.51-40.16,171.87,8.24A11,11,0,0,0,655,851.07c42.49-75.52,98.48-102.7,106.65-202.79,7.42-90.87,10.61-125.4-40.33-212.43-36.9-63-20.06-182-88.21-214.34C548.09,181.11,506.6,225.51,482.09,346Z"/><path class="cls-7" d="M366.48,728.73c-3.1,12.89-9.45,69.39-18.25,81-4.41,5.8-2.67-35.89-8.8-33.43-4,1.6-7.74,9.57-14.08,10.56-3.17.49-8.36-9.26-13.46-9s-10.12,10.59-12.94,9c-14.29-8.14-.91-101.67,2.18-117.28,3.56-18,87.55-232.37,114.69-197.33C442,506,375.22,692.35,366.48,728.73Z"/><path class="cls-7" d="M753.47,639.07c1,24.32-48,144.83-48,140.72,76-23.16,99.22-148.83,77.7-222.08-7-23.92-26.1-79.13-48.28-35.16C719.47,553,752.15,606.63,753.47,639.07Z"/></g></svg>
